icons-rebrand/svg/monitoring-regular.svg

<svg xmlns="http://www.w3.org/2000/svg" width="32" height="32" viewBox="0 0 32 32"><path d="M16 17C17.6569 17 19 15.6569 19 14C19 12.3431 17.6569 11 16 11C14.3431 11 13 12.3431 13 14C13 15.6569 14.3431 17 16 17ZM16 15.5C15.1716 15.5 14.5 14.8284 14.5 14C14.5 13.1716 15.1716 12.5 16 12.5C16.8284 12.5 17.5 13.1716 17.5 14C17.5 14.8284 16.8284 15.5 16 15.5Z M10.9684 10.2495C12.2154 9.17643 13.9024 8.25 16 8.25C18.0975 8.25 19.7846 9.17643 21.0316 10.2495C22.2745 11.3191 23.1206 12.567 23.5623 13.311C23.797 13.704 23.8485 14.2067 23.563 14.6878C23.1215 15.4317 22.2751 16.6804 21.0316 17.7505C19.7846 18.8236 18.0975 19.75 16 19.75C13.9024 19.75 12.2154 18.8236 10.9684 17.7505C9.72487 16.6804 8.87852 15.4317 8.43703 14.6878C8.18777 14.2694 8.18798 13.7294 8.43766 13.3112C8.87932 12.5671 9.72546 11.3191 10.9684 10.2495ZM9.77355 14C10.1807 14.6734 10.9133 15.7241 11.9468 16.6135C13.0176 17.5349 14.3705 18.25 16 18.25C17.6294 18.25 18.9824 17.5349 20.0532 16.6135C21.0867 15.7241 21.8193 14.6734 22.2264 14C21.8193 13.3266 21.0867 12.2759 20.0532 11.3865C18.9824 10.4651 17.6294 9.75 16 9.75C14.3705 9.75 13.0176 10.4651 11.9468 11.3865C10.9133 12.2759 10.1807 13.3266 9.77355 14Z M28.8872 21.4059C29.0995 21.5096 29.2852 21.6607 29.4297 21.8477C29.5725 22.0301 29.6713 22.2429 29.7185 22.4697C29.7658 22.6964 29.7602 22.931 29.7022 23.1553C29.4345 24.189 28.8295 25.1039 27.9831 25.7551C27.1367 26.4062 26.0972 26.7563 25.0293 26.75H6.97073C5.90273 26.7563 4.86316 26.4061 4.01673 25.7547C3.17029 25.1034 2.5654 24.1883 2.29788 23.1543C2.23994 22.9302 2.23437 22.6958 2.28162 22.4692C2.32887 22.2426 2.42766 22.0299 2.57034 21.8477C2.71489 21.6607 2.90054 21.5096 3.1129 21.4059C3.32527 21.3023 3.55865 21.2489 3.79495 21.25H4.25003V10.1348C4.23388 8.85765 4.72484 7.62621 5.61527 6.7105C6.50571 5.7948 7.72293 5.26958 9.00003 5.25H23C24.2771 5.26958 25.4944 5.7948 26.3848 6.7105C27.2752 7.62621 27.7662 8.85765 27.75 10.1348V21.25H28.2051C28.4414 21.2489 28.6748 21.3023 28.8872 21.4059ZM6.67559 7.77081C6.06639 8.40527 5.73356 9.25537 5.75003 10.1348V21.25H26.25V10.1348C26.2665 9.25537 25.9337 8.40527 25.3245 7.77081C24.7153 7.13634 23.8794 6.76926 23 6.75H9.00003C8.12066 6.76926 7.28478 7.13634 6.67559 7.77081ZM6.97073 25.25H25.0293C25.7638 25.256 26.4792 25.0168 27.0624 24.5703C27.6455 24.1239 28.0631 23.4957 28.2491 22.7852L28.2051 22.75H3.79495C3.95712 23.4678 4.36122 24.108 4.93947 24.5632C5.51771 25.0184 6.2349 25.2609 6.97073 25.25Z"/></svg>

<svg width="32" height="32" viewBox="0 0 32 32" xmlns="http://www.w3.org/2000/svg"><path d="M16 17a3 3 0 1 0 0-6 3 3 0 0 0 0 6Zm0-1.5a1.5 1.5 0 1 1 0-3 1.5 1.5 0 0 1 0 3Zm-5.031-5.25c1.247-1.074 2.934-2 5.031-2 2.098 0 3.785.926 5.032 2 1.243 1.07 2.089 2.317 2.53 3.061a1.31 1.31 0 0 1 .001 1.377c-.441.744-1.288 1.992-2.531 3.062-1.247 1.074-2.934 2-5.032 2s-3.784-.926-5.031-2c-1.244-1.07-2.09-2.318-2.532-3.062a1.36 1.36 0 0 1 0-1.377c.442-.744 1.289-1.992 2.532-3.062ZM9.774 14c.407.673 1.14 1.724 2.173 2.613 1.07.922 2.424 1.637 4.053 1.637 1.63 0 2.983-.715 4.053-1.637 1.034-.889 1.766-1.94 2.174-2.613-.408-.673-1.14-1.724-2.174-2.614-1.07-.92-2.424-1.636-4.053-1.636-1.63 0-2.982.715-4.053 1.636-1.034.89-1.766 1.94-2.173 2.614Zm19.113 7.406a1.54 1.54 0 0 1 .832 1.064c.047.226.041.461-.017.685a4.798 4.798 0 0 1-4.673 3.595H6.971a4.797 4.797 0 0 1-4.673-3.596 1.507 1.507 0 0 1 .272-1.306 1.54 1.54 0 0 1 1.225-.598h.455V10.135A4.824 4.824 0 0 1 9 5.25h14a4.824 4.824 0 0 1 4.75 4.885V21.25h.455c.237-.001.47.052.682.156ZM6.676 7.77a3.323 3.323 0 0 0-.926 2.364V21.25h20.5V10.135A3.323 3.323 0 0 0 23 6.75H9c-.88.02-1.715.386-2.324 1.02ZM6.97 25.25h18.058a3.3 3.3 0 0 0 3.22-2.465l-.044-.035H3.795a3.207 3.207 0 0 0 3.176 2.5Z"/></svg>
